media/icons/icon_target.svg

<svg width="512" height="512" viewBox="0 0 512 512" fill="none" xmlns="http://www.w3.org/2000/svg">
<g clip-path="url(#clip0_220_737)">
<path d="M437.346 186.893L427.304 196.942C425.951 198.283 424.609 199.454 423.273 200.533C434.834 226.428 441.327 255.073 441.327 285.218C441.327 400.134 347.831 493.623 232.91 493.623C117.982 493.623 24.4867 400.134 24.4867 285.218C24.4867 170.314 117.983 76.832 232.91 76.832C256.848 76.832 279.828 80.942 301.26 88.398V88.391C303.302 85.147 305.686 81.916 308.949 78.629L314.107 73.464C288.888 63.788 261.53 58.434 232.916 58.434C107.666 58.442 6.09766 159.979 6.09766 285.211C6.09766 410.462 107.666 511.999 232.911 511.999C358.174 511.999 459.718 410.461 459.718 285.211C459.717 249.993 451.688 216.635 437.346 186.893Z" fill="#AAAAAA"/>
<path d="M371.919 214.587H351.304C361.791 233.763 367.761 255.738 367.761 279.084C367.761 353.44 307.264 413.931 232.907 413.931C158.545 413.931 98.0483 353.439 98.0483 279.084C98.0473 204.738 158.544 144.248 232.907 144.248C253.809 144.248 273.625 149.028 291.3 157.559V137.414C273.3 129.988 253.583 125.86 232.907 125.86C148.265 125.86 79.6523 194.467 79.6523 279.085C79.6523 363.703 148.264 432.322 232.907 432.322C317.531 432.322 386.156 363.703 386.156 279.085C386.157 256.036 381.029 234.196 371.919 214.587Z" fill="#AAAAAA"/>
<path d="M504.47 75.7941C503.037 73.0131 500.72 71.0691 498.428 69.8971C496.117 68.7141 493.757 68.1591 491.343 67.9101L447.57 63.5441C446.679 63.4771 445.277 62.8611 444.18 61.7401C443.058 60.6421 442.442 59.2401 442.381 58.3501L437.997 14.5601C437.655 11.3591 436.808 8.17605 434.577 5.21305C433.467 3.74905 431.949 2.38405 430.113 1.43305C428.283 0.482055 426.174 -0.00594534 424.187 5.46628e-05C421.632 0.00705466 419.364 0.725055 417.456 1.70705C415.547 2.70705 413.926 3.98705 412.462 5.44405L324.113 93.7931C320.522 97.4331 317.967 101.811 316.003 106.493C314.089 111.194 312.79 116.103 312.753 121.218V171.673C312.765 175.13 313.656 178.35 315.113 181.24L277.097 220.39C264.78 211.11 249.52 205.531 232.91 205.531C192.277 205.531 159.352 238.468 159.352 279.082C159.352 319.696 192.277 352.633 232.91 352.633C273.524 352.633 306.468 319.696 306.468 279.082C306.468 261.705 300.402 245.76 290.317 233.17L329.693 192.629C331.157 192.94 332.657 193.123 334.217 193.129H384.702C389.817 193.093 394.726 191.8 399.42 189.885C404.109 187.915 408.486 185.361 412.132 181.77L500.463 93.4451C501.92 91.9811 503.194 90.3601 504.195 88.4461C505.177 86.5371 505.902 84.2701 505.902 81.7211C505.921 79.7391 505.433 77.6241 504.47 75.7941ZM232.91 334.252C202.485 334.252 177.735 309.509 177.735 279.089C177.735 248.676 202.484 223.926 232.91 223.926C244.514 223.926 255.281 227.548 264.176 233.693L226.312 272.691C222.775 276.331 222.861 282.154 226.502 285.69C230.142 289.227 235.971 289.141 239.508 285.5L277.348 246.538C284.06 255.673 288.078 266.904 288.078 279.087C288.078 309.509 263.329 334.252 232.91 334.252ZM331.155 164.742V121.226C331.119 119.604 331.783 116.427 333.009 113.537C334.174 110.635 335.954 107.921 337.131 106.799L420.432 23.5051L424.097 60.1921C424.353 62.6611 425.06 64.9481 425.999 67.0881L331.155 164.742ZM399.133 168.778C397.999 169.949 395.297 171.723 392.395 172.9C389.505 174.126 386.329 174.79 384.706 174.754H347.061L439.063 80.0151C441.148 80.9061 443.349 81.5821 445.745 81.8381L482.414 85.4961L399.133 168.778Z" fill="#EA5050"/>
</g>
<defs>
<clipPath id="clip0_220_737">
<rect width="511.999" height="511.999" fill="white"/>
</clipPath>
</defs>
</svg>

<svg version="1.1" id="Capa_1" xmlns="http://www.w3.org/2000/svg" xmlns:xlink="http://www.w3.org/1999/xlink" x="0px" y="0px"
	 viewBox="0 0 511.999 511.999" style="enable-background:new 0 0 511.999 511.999;" xml:space="preserve">
<g>
	<g>
		<path d="M437.345,186.893l-10.042,10.049c-1.353,1.341-2.695,2.512-4.031,3.591c11.561,25.895,18.054,54.54,18.054,84.685
			c0,114.916-93.496,208.405-208.417,208.405c-114.928,0-208.423-93.489-208.423-208.405c0-114.904,93.496-208.386,208.423-208.386
			c23.938,0,46.918,4.11,68.35,11.566v-0.007c2.042-3.244,4.426-6.475,7.689-9.762l5.158-5.165
			c-25.219-9.676-52.577-15.03-81.191-15.03C107.665,58.442,6.097,159.979,6.097,285.211c0,125.251,101.568,226.788,226.813,226.788
			c125.263,0,226.807-101.538,226.807-226.788C459.716,249.993,451.687,216.635,437.345,186.893z"/>
	</g>
</g>
<g>
	<g>
		<path d="M371.921,214.587h-20.615c10.487,19.176,16.457,41.151,16.457,64.497c0,74.356-60.497,134.847-134.854,134.847
			c-74.362,0-134.859-60.492-134.859-134.847c-0.001-74.346,60.496-134.836,134.859-134.836c20.902,0,40.718,4.78,58.393,13.311
			v-20.145c-18-7.426-37.717-11.554-58.393-11.554c-84.642,0-153.255,68.607-153.255,153.225s68.612,153.237,153.255,153.237
			c84.624,0,153.249-68.619,153.249-153.237C386.159,256.036,381.031,234.196,371.921,214.587z"/>
	</g>
</g>
<g>
	<g>
		<path d="M504.47,75.794c-1.433-2.781-3.75-4.725-6.042-5.897c-2.311-1.183-4.671-1.738-7.085-1.987l-43.773-4.366
			c-0.891-0.067-2.293-0.683-3.39-1.804c-1.122-1.098-1.738-2.5-1.799-3.39l-4.384-43.79c-0.342-3.201-1.189-6.384-3.42-9.347
			c-1.11-1.464-2.628-2.829-4.464-3.78c-1.83-0.951-3.939-1.439-5.926-1.433c-2.555,0.007-4.823,0.725-6.731,1.707
			c-1.909,1-3.53,2.28-4.994,3.737l-88.349,88.349c-3.591,3.64-6.146,8.018-8.11,12.7c-1.914,4.701-3.213,9.61-3.25,14.725v50.455
			c0.012,3.457,0.903,6.677,2.36,9.567l-38.016,39.15c-12.317-9.28-27.577-14.859-44.187-14.859
			c-40.633,0-73.558,32.937-73.558,73.551s32.925,73.551,73.558,73.551c40.614,0,73.558-32.937,73.558-73.551
			c0-17.377-6.066-33.322-16.151-45.912l39.376-40.541c1.464,0.311,2.964,0.494,4.524,0.5h50.485
			c5.115-0.036,10.024-1.329,14.718-3.244c4.689-1.97,9.066-4.524,12.712-8.115l88.331-88.325c1.457-1.464,2.731-3.085,3.732-4.999
			c0.982-1.909,1.707-4.176,1.707-6.725C505.921,79.739,505.433,77.624,504.47,75.794z M232.91,334.252
			c-30.425,0-55.175-24.743-55.175-55.163c0-30.413,24.749-55.163,55.175-55.163c11.604,0,22.371,3.622,31.266,9.767l-37.864,38.998
			c-3.537,3.64-3.451,9.463,0.19,12.999c3.64,3.537,9.469,3.451,13.006-0.19l37.84-38.962c6.712,9.135,10.73,20.366,10.73,32.549
			C288.078,309.509,263.329,334.252,232.91,334.252z M331.155,164.742v-43.516c-0.036-1.622,0.628-4.799,1.854-7.689
			c1.165-2.902,2.945-5.616,4.122-6.738l83.301-83.294l3.665,36.687c0.256,2.469,0.963,4.756,1.902,6.896L331.155,164.742z
			 M399.133,168.778c-1.134,1.171-3.836,2.945-6.738,4.122c-2.89,1.226-6.066,1.89-7.689,1.854h-37.645l92.002-94.739
			c2.085,0.891,4.286,1.567,6.682,1.823l36.669,3.658L399.133,168.778z"/>
	</g>
</g>
<g>
</g>
<g>
</g>
<g>
</g>
<g>
</g>
<g>
</g>
<g>
</g>
<g>
</g>
<g>
</g>
<g>
</g>
<g>
</g>
<g>
</g>
<g>
</g>
<g>
</g>
<g>
</g>
<g>
</g>
</svg>
